packages/IcoMoon/src/PodcastIcon/index.svg

<svg version="1.1" xmlns="http://www.w3.org/2000/svg" width="16" height="16" viewBox="0 0 16 16">
<path d="M16 8c0-4.418-3.582-8-8-8s-8 3.582-8 8c0 3.438 2.169 6.37 5.214 7.501l-0.214 0.499h6l-0.214-0.499c3.045-1.131 5.214-4.063 5.214-7.501zM7.606 9.919c-0.356-0.153-0.606-0.507-0.606-0.919 0-0.552 0.448-1 1-1s1 0.448 1 1c0 0.412-0.25 0.766-0.606 0.919l-0.394-0.919-0.394 0.919zM8.41 9.958c0.908-0.189 1.59-0.994 1.59-1.958 0-1.105-0.895-2-2-2s-2 0.895-2 2c0 0.964 0.682 1.768 1.59 1.957l-1.166 2.721c-1.425-0.612-2.424-2.028-2.424-3.677 0-2.209 1.791-4.188 4-4.188s4 1.978 4 4.188c0 1.649-0.999 3.066-2.424 3.677l-1.166-2.72zM10.757 15.433l-1.155-2.695c1.976-0.668 3.398-2.537 3.398-4.738 0-2.761-2.239-5-5-5s-5 2.239-5 5c0 2.201 1.422 4.070 3.398 4.738l-1.155 2.695c-2.494-1.070-4.24-3.547-4.24-6.433 0-3.865 3.133-7.185 6.997-7.185s6.997 3.32 6.997 7.185c0 2.886-1.747 5.363-4.24 6.433z"></path>
</svg>

<svg xmlns="http://www.w3.org/2000/svg" viewBox="0 0 16 16">
  <path d="M16 8a8 8 0 10-10.786 7.501L5 16h6l-.214-.499A8.002 8.002 0 0016 8zM7.606 9.919a1 1 0 11.788 0L8 9l-.394.919zm.804.039a2 2 0 10-.82-.001l-1.166 2.721A4.002 4.002 0 014 9.001c0-2.209 1.791-4.188 4-4.188s4 1.978 4 4.188a4 4 0 01-2.424 3.677L8.41 9.958zm2.347 5.475l-1.155-2.695A5.002 5.002 0 008 3a5 5 0 00-1.602 9.738l-1.155 2.695A6.997 6.997 0 011.003 9c0-3.865 3.133-7.185 6.997-7.185S14.997 5.135 14.997 9a7 7 0 01-4.24 6.433z"/>
</svg>
